usr/share/icons/biglinux-icons-material-dark/symbolic/actions/layer-top.svg

<svg xmlns="http://www.w3.org/2000/svg" viewBox="0 0 16 16">
  <defs id="defs3051">
    <style type="text/css" id="current-color-scheme">
      .ColorScheme-Text {
        color:#dedede;
      }
      .ColorScheme-Highlight {
        color:#3daee9;
      }
      </style>
  </defs>
  <path 
        style="fill:currentColor;fill-opacity:1;stroke:none"
        d="M 11.498047 4.0019531 L 11.310547 4.2207031 L 8.9980469 6.7207031 L 9.6542969 7.4082031 L 10.998047 5.9707031 L 10.998047 14 L 12 14 L 12 5.9707031 L 13.34375 7.4082031 L 14 6.7207031 L 11.6875 4.2207031 L 11.498047 4.0019531 z M 5 7 L 2 10 L 6 10 L 9 7 L 5 7 z M 5 11 L 2 14 L 6 14 L 9 11 L 5 11 z "
        class="ColorScheme-Text"
        />
  <path
        style="fill:currentColor;fill-opacity:1;stroke:none"
        d="M 5,3 2,6 8,6 11,3 Z"
        class="ColorScheme-Highlight"
      />
</svg>

<svg xmlns="http://www.w3.org/2000/svg" viewBox="0 0 16 16">
<defs id="defs3051">
<style id="current-color-scheme" type="text/css">
.ColorScheme-Contrast{color:#dedede}.ColorScheme-Highlight{color:#3daee9}
</style>
</defs>
<path d="m11.498 4.002-.187.219-2.313 2.5.656.687 1.344-1.437V14H12V5.97l1.344 1.438.656-.687-2.312-2.5zM5 7l-3 3h4l3-3zm0 4-3 3h4l3-3z" class="ColorScheme-Contrast" style="fill:currentColor;fill-opacity:1;stroke:none"/>
<path d="M5 3 2 6h6l3-3Z" class="ColorScheme-Highlight" style="fill:currentColor;fill-opacity:1;stroke:none"/>
</svg>
